assets/icons/qvision/crop_portrait.svg

<svg xmlns="http://www.w3.org/2000/svg" height="24" viewBox="0 0 24 24" width="24"><path d="M0 0h24v24H0z" fill="none"/><path d="M17 3H7c-1.1 0-2 .9-2 2v14c0 1.1.9 2 2 2h10c1.1 0 2-.9 2-2V5c0-1.1-.9-2-2-2zm0 16H7V5h10v14z"/></svg>

<svg width="24" height="24" viewBox="0 0 24 24" fill="none" xmlns="http://www.w3.org/2000/svg">
<g clip-path="url(#clip0_147_3351)">
<path d="M17 3H7C5.9 3 5 3.9 5 5V19C5 20.1 5.9 21 7 21H17C18.1 21 19 20.1 19 19V5C19 3.9 18.1 3 17 3ZM17 19H7V5H17V19Z" fill="#323232"/>
</g>
<defs>
<clipPath id="clip0_147_3351">
<rect width="24" height="24" fill="white"/>
</clipPath>
</defs>
</svg>
